X:1
T:Lesson 12 - Fanfare Minuet
L:1/8
M:3/4
K:D
!>!D2 DD DD | !>!F2 FF FF | !>!A2 AA AA | !>!d4 e2 | (fe) d2 e2 | (fe) d2 e2 |
f2!f! (gf) ef | d6 | !>!a2 aa aa | a2 fg af | !>!g2 gg gg | g2 ef ge |
f2 ff ff | f2 de fd | !>!e2 ee ee | e4 z2 | !>!D2 DD DD | !>!F2 FF FF |
!>!A2 AA AA | !>!d4 e2 | (fe) d2 e2 | (fe) d2 e2 | f2 (gf) ef | d6 |]

